X:229
T: Der Hammerschmiedssohn
N: Q0088
O: Mitteleuropa, Deutschland (BRD) , Rheinland, Siebengebirge
R: Ballade, Verfuehrung, Schwangerschaft, Mord
M: 4/4
L: 1/8
K: Eb
B,2 | E2G2B2cd | e2dcB2
B2 | e4B4 | e4c4 | B2BAG2
GA | B2B2c2GB | BAGFE2
F2 | G4c4 | B4G2B2 | B2A2F2D2 | E4z2

@@@ Tune index: 1284
